icons/mobile/24/svg/passkey-24.svg

<!-- This Source Code Form is subject to the terms of the Mozilla Public
   - License, v. 2.0. If a copy of the MPL was not distributed with this
   - file, You can obtain one at http://mozilla.org/MPL/2.0/. -->
<svg xmlns="http://www.w3.org/2000/svg" width="24" height="24" fill="none" viewBox="0 0 24 24">
    <path fill="#000" d="M14 7a4 4 0 1 1-8 0 4 4 0 0 1 8 0" />
    <path fill="#000" fill-rule="evenodd" d="M19.375 15.883a3.505 3.505 0 0 0 2.505-4.315 3.46 3.46 0 0 0-2.447-2.447A3.7 3.7 0 0 0 18.5 9a3.5 3.5 0 0 0-3.5 3.5 3.49 3.49 0 0 0 2.625 3.376V22h1.75v-1H21v-2.5h-1.625zM16.75 12.5c0-.965.785-1.75 1.75-1.75q.244 0 .495.065a1.7 1.7 0 0 1 1.191 1.191 1.77 1.77 0 0 1-.3 1.564 1.752 1.752 0 0 1-3.136-1.07" clip-rule="evenodd" />
    <path fill="#000" d="M16.375 16.736a4.73 4.73 0 0 1-2.607-3.986H6.75A4.75 4.75 0 0 0 2 17.5V21h14.375z" />
</svg>

<!-- This Source Code Form is subject to the terms of the Mozilla Public
   - License, v. 2.0. If a copy of the MPL was not distributed with this
   - file, You can obtain one at http://mozilla.org/MPL/2.0/. -->
<svg width="24" height="24" viewBox="0 0 24 24" fill="none" xmlns="http://www.w3.org/2000/svg">
    <path d="M14 7C14 9.20914 12.2091 11 10 11C7.79086 11 6 9.20914 6 7C6 4.79086 7.79086 3 10 3C12.2091 3 14 4.79086 14 7Z" fill="black" />
    <path fill-rule="evenodd" clip-rule="evenodd" d="M19.375 15.883C21.164 15.421 22.401 13.587 21.88 11.568C21.575 10.389 20.611 9.425 19.433 9.121C19.116 9.039 18.803 9 18.5 9C16.567 9 15 10.567 15 12.5C15 14.129 16.118 15.486 17.625 15.876V22H19.375V21H21V18.5H19.375V15.883ZM16.75 12.5C16.75 11.535 17.535 10.75 18.5 10.75C18.662 10.75 18.828 10.772 18.995 10.815C19.561 10.961 20.039 11.44 20.186 12.006C20.384 12.774 20.083 13.316 19.886 13.57C19.551 14.002 19.046 14.25 18.501 14.25C17.535 14.25 16.75 13.465 16.75 12.5Z" fill="black" />
    <path d="M16.375 16.736C14.865 15.982 13.859 14.466 13.768 12.75H6.75C4.127 12.75 2 14.877 2 17.5V21H16.375V16.736Z" fill="black" />
</svg>
